bernoullicharts/rational_func_0_2_0_6_0_3_0_8_0_4_0_9_0_5_0_9__bits.svg

<?xml version="1.0" encoding="utf-8" standalone="no"?>
<!DOCTYPE svg PUBLIC "-//W3C//DTD SVG 1.1//EN"
  "http://www.w3.org/Graphics/SVG/1.1/DTD/svg11.dtd">
<!-- Created with matplotlib (https://matplotlib.org/) -->
<svg height="345.6pt" version="1.1" viewBox="0 0 460.8 345.6" width="460.8pt" xmlns="http://www.w3.org/2000/svg" xmlns:xlink="http://www.w3.org/1999/xlink">
 <defs>
  <style type="text/css">
*{stroke-linecap:butt;stroke-linejoin:round;}
  </style>
 </defs>
 <g id="figure_1">
  <g id="patch_1">
   <path d="M 0 345.6 
L 460.8 345.6 
L 460.8 0 
L 0 0 
z
" style="fill:#ffffff;"/>
  </g>
  <g id="axes_1">
   <g id="patch_2">
    <path d="M 57.6 307.584 
L 414.72 307.584 
L 414.72 41.472 
L 57.6 41.472 
z
" style="fill:#ffffff;"/>
   </g>
   <g id="matplotlib.axis_1">
    <g id="xtick_1">
     <g id="line2d_1">
      <defs>
       <path d="M 0 0 
L 0 3.5 
" id="m0df57b235e" style="stroke:#000000;stroke-width:0.8;"/>
      </defs>
      <g>
       <use style="stroke:#000000;stroke-width:0.8;" x="73.800255" xlink:href="#m0df57b235e" y="307.584"/>
      </g>
     </g>
     <g id="text_1">
      <text style="font-family:DejaVu Sans;font-size:10px;font-style:normal;font-weight:normal;text-anchor:middle;" transform="rotate(-0, 73.800255, 322.182437)" x="73.800255" y="322.182437">0.0</text>
     </g>
    </g>
    <g id="xtick_2">
     <g id="line2d_2">
      <g>
       <use style="stroke:#000000;stroke-width:0.8;" x="138.744153" xlink:href="#m0df57b235e" y="307.584"/>
      </g>
     </g>
     <g id="text_2">
      <text style="font-family:DejaVu Sans;font-size:10px;font-style:normal;font-weight:normal;text-anchor:middle;" transform="rotate(-0, 138.744153, 322.182437)" x="138.744153" y="322.182437">0.2</text>
     </g>
    </g>
    <g id="xtick_3">
     <g id="line2d_3">
      <g>
       <use style="stroke:#000000;stroke-width:0.8;" x="203.688051" xlink:href="#m0df57b235e" y="307.584"/>
      </g>
     </g>
     <g id="text_3">
      <text style="font-family:DejaVu Sans;font-size:10px;font-style:normal;font-weight:normal;text-anchor:middle;" transform="rotate(-0, 203.688051, 322.182437)" x="203.688051" y="322.182437">0.4</text>
     </g>
    </g>
    <g id="xtick_4">
     <g id="line2d_4">
      <g>
       <use style="stroke:#000000;stroke-width:0.8;" x="268.631949" xlink:href="#m0df57b235e" y="307.584"/>
      </g>
     </g>
     <g id="text_4">
      <text style="font-family:DejaVu Sans;font-size:10px;font-style:normal;font-weight:normal;text-anchor:middle;" transform="rotate(-0, 268.631949, 322.182437)" x="268.631949" y="322.182437">0.6</text>
     </g>
    </g>
    <g id="xtick_5">
     <g id="line2d_5">
      <g>
       <use style="stroke:#000000;stroke-width:0.8;" x="333.575847" xlink:href="#m0df57b235e" y="307.584"/>
      </g>
     </g>
     <g id="text_5">
      <text style="font-family:DejaVu Sans;font-size:10px;font-style:normal;font-weight:normal;text-anchor:middle;" transform="rotate(-0, 333.575847, 322.182437)" x="333.575847" y="322.182437">0.8</text>
     </g>
    </g>
    <g id="xtick_6">
     <g id="line2d_6">
      <g>
       <use style="stroke:#000000;stroke-width:0.8;" x="398.519745" xlink:href="#m0df57b235e" y="307.584"/>
      </g>
     </g>
     <g id="text_6">
      <text style="font-family:DejaVu Sans;font-size:10px;font-style:normal;font-weight:normal;text-anchor:middle;" transform="rotate(-0, 398.519745, 322.182437)" x="398.519745" y="322.182437">1.0</text>
     </g>
    </g>
    <g id="text_7">
     <text style="font-family:DejaVu Sans;font-size:10px;font-style:normal;font-weight:normal;text-anchor:middle;" transform="rotate(-0, 236.16, 335.860562)" x="236.16" y="335.860562">Probability</text>
    </g>
   </g>
   <g id="matplotlib.axis_2">
    <g id="ytick_1">
     <g id="line2d_7">
      <defs>
       <path d="M 0 0 
L -3.5 0 
" id="m46b04f5a22" style="stroke:#000000;stroke-width:0.8;"/>
      </defs>
      <g>
       <use style="stroke:#000000;stroke-width:0.8;" x="57.6" xlink:href="#m46b04f5a22" y="286.541902"/>
      </g>
     </g>
     <g id="text_8">
      <text style="font-family:DejaVu Sans;font-size:10px;font-style:normal;font-weight:normal;text-anchor:end;" transform="rotate(-0, 50.6, 290.341121)" x="50.6" y="290.341121">7</text>
     </g>
    </g>
    <g id="ytick_2">
     <g id="line2d_8">
      <g>
       <use style="stroke:#000000;stroke-width:0.8;" x="57.6" xlink:href="#m46b04f5a22" y="255.26184"/>
      </g>
     </g>
     <g id="text_9">
      <text style="font-family:DejaVu Sans;font-size:10px;font-style:normal;font-weight:normal;text-anchor:end;" transform="rotate(-0, 50.6, 259.061059)" x="50.6" y="259.061059">8</text>
     </g>
    </g>
    <g id="ytick_3">
     <g id="line2d_9">
      <g>
       <use style="stroke:#000000;stroke-width:0.8;" x="57.6" xlink:href="#m46b04f5a22" y="223.981778"/>
      </g>
     </g>
     <g id="text_10">
      <text style="font-family:DejaVu Sans;font-size:10px;font-style:normal;font-weight:normal;text-anchor:end;" transform="rotate(-0, 50.6, 227.780997)" x="50.6" y="227.780997">9</text>
     </g>
    </g>
    <g id="ytick_4">
     <g id="line2d_10">
      <g>
       <use style="stroke:#000000;stroke-width:0.8;" x="57.6" xlink:href="#m46b04f5a22" y="192.701716"/>
      </g>
     </g>
     <g id="text_11">
      <text style="font-family:DejaVu Sans;font-size:10px;font-style:normal;font-weight:normal;text-anchor:end;" transform="rotate(-0, 50.6, 196.500935)" x="50.6" y="196.500935">10</text>
     </g>
    </g>
    <g id="ytick_5">
     <g id="line2d_11">
      <g>
       <use style="stroke:#000000;stroke-width:0.8;" x="57.6" xlink:href="#m46b04f5a22" y="161.421654"/>
      </g>
     </g>
     <g id="text_12">
      <text style="font-family:DejaVu Sans;font-size:10px;font-style:normal;font-weight:normal;text-anchor:end;" transform="rotate(-0, 50.6, 165.220873)" x="50.6" y="165.220873">11</text>
     </g>
    </g>
    <g id="ytick_6">
     <g id="line2d_12">
      <g>
       <use style="stroke:#000000;stroke-width:0.8;" x="57.6" xlink:href="#m46b04f5a22" y="130.141592"/>
      </g>
     </g>
     <g id="text_13">
      <text style="font-family:DejaVu Sans;font-size:10px;font-style:normal;font-weight:normal;text-anchor:end;" transform="rotate(-0, 50.6, 133.940811)" x="50.6" y="133.940811">12</text>
     </g>
    </g>
    <g id="ytick_7">
     <g id="line2d_13">
      <g>
       <use style="stroke:#000000;stroke-width:0.8;" x="57.6" xlink:href="#m46b04f5a22" y="98.86153"/>
      </g>
     </g>
     <g id="text_14">
      <text style="font-family:DejaVu Sans;font-size:10px;font-style:normal;font-weight:normal;text-anchor:end;" transform="rotate(-0, 50.6, 102.660749)" x="50.6" y="102.660749">13</text>
     </g>
    </g>
    <g id="ytick_8">
     <g id="line2d_14">
      <g>
       <use style="stroke:#000000;stroke-width:0.8;" x="57.6" xlink:href="#m46b04f5a22" y="67.581468"/>
      </g>
     </g>
     <g id="text_15">
      <text style="font-family:DejaVu Sans;font-size:10px;font-style:normal;font-weight:normal;text-anchor:end;" transform="rotate(-0, 50.6, 71.380687)" x="50.6" y="71.380687">14</text>
     </g>
    </g>
    <g id="text_16">
     <text style="font-family:DejaVu Sans;font-size:10px;font-style:normal;font-weight:normal;text-anchor:middle;" transform="rotate(-90, 31.795312, 174.528)" x="31.795312" y="174.528">Average Bits Consumed Per Call</text>
    </g>
   </g>
   <g id="line2d_15">
    <path clip-path="url(#p8af44fd851)" d="M 73.832727 57.196487 
L 77.112066 53.568 
L 80.391405 87.100227 
L 83.670744 79.780692 
L 86.950083 70.396673 
L 90.229421 98.423609 
L 93.50876 104.679621 
L 96.788099 131.955836 
L 100.067438 115.064602 
L 103.346777 147.220506 
L 106.626116 128.264788 
L 109.905455 144.46786 
L 113.184793 156.229164 
L 116.464132 169.992391 
L 119.743471 162.422616 
L 123.02281 183.130017 
L 126.302149 187.384106 
L 129.581488 167.364866 
L 132.860826 191.575634 
L 136.140165 206.840304 
L 139.419504 212.783516 
L 142.698843 213.409117 
L 145.978182 209.65551 
L 149.257521 215.348481 
L 152.53686 212.408155 
L 155.816198 198.644928 
L 159.095537 217.287845 
L 162.374876 213.471677 
L 165.654215 208.279187 
L 168.933554 227.297465 
L 172.212893 216.474563 
L 175.492231 215.661282 
L 178.77157 215.160801 
L 182.050909 224.294579 
L 185.330248 221.729614 
L 188.609587 217.913446 
L 191.888926 216.912484 
L 195.168264 216.349443 
L 198.447603 239.371569 
L 201.726942 241.498613 
L 205.006281 221.041452 
L 208.28562 225.796022 
L 211.564959 223.543857 
L 214.844298 232.177154 
L 218.123636 240.998132 
L 221.402975 225.921142 
L 224.682314 243.187736 
L 227.961653 226.546743 
L 231.240992 233.178116 
L 234.520331 227.923066 
L 237.799669 243.938458 
L 241.079008 239.246448 
L 244.358347 241.686293 
L 247.637686 236.618923 
L 250.917025 246.253182 
L 254.196364 244.751739 
L 257.475702 244.251258 
L 260.755041 237.807566 
L 264.03438 240.18485 
L 267.313719 244.188698 
L 270.593058 241.811413 
L 273.872397 234.179078 
L 277.151736 243.187736 
L 280.431074 223.606417 
L 283.710413 227.923066 
L 286.989752 238.558287 
L 290.269091 240.309971 
L 293.54843 238.370607 
L 296.827769 237.056844 
L 300.107107 237.932686 
L 303.386446 236.306123 
L 306.665785 249.506309 
L 309.945124 247.003904 
L 313.224463 253.134796 
L 316.503802 250.25703 
L 319.78314 239.93461 
L 323.062479 251.570793 
L 326.341818 253.822957 
L 329.621157 253.009676 
L 332.900496 252.759435 
L 336.179835 255.887441 
L 339.459174 252.071274 
L 342.738512 260.516891 
L 346.017851 267.273384 
L 349.29719 263.519777 
L 352.576529 267.961545 
L 355.855868 264.833539 
L 359.135207 271.777713 
L 362.414545 272.653555 
L 365.693884 273.028915 
L 368.973223 279.973089 
L 372.252562 281.099171 
L 375.531901 277.533244 
L 378.81124 290.107829 
L 382.090579 284.227178 
L 385.369917 271.026991 
L 388.649256 293.298396 
L 391.928595 291.671832 
L 395.207934 291.859513 
L 398.487273 295.488 
" style="fill:none;stroke:#1f77b4;stroke-linecap:square;stroke-width:1.5;"/>
   </g>
   <g id="patch_3">
    <path d="M 57.6 307.584 
L 57.6 41.472 
" style="fill:none;stroke:#000000;stroke-linecap:square;stroke-linejoin:miter;stroke-width:0.8;"/>
   </g>
   <g id="patch_4">
    <path d="M 414.72 307.584 
L 414.72 41.472 
" style="fill:none;stroke:#000000;stroke-linecap:square;stroke-linejoin:miter;stroke-width:0.8;"/>
   </g>
   <g id="patch_5">
    <path d="M 57.6 307.584 
L 414.72 307.584 
" style="fill:none;stroke:#000000;stroke-linecap:square;stroke-linejoin:miter;stroke-width:0.8;"/>
   </g>
   <g id="patch_6">
    <path d="M 57.6 41.472 
L 414.72 41.472 
" style="fill:none;stroke:#000000;stroke-linecap:square;stroke-linejoin:miter;stroke-width:0.8;"/>
   </g>
   <g id="text_17">
    <text style="font-family:DejaVu Sans;font-size:12px;font-style:normal;font-weight:normal;text-anchor:middle;" transform="rotate(-0, 236.16, 35.472)" x="236.16" y="35.472">Avg. Bits Consumed by Rational Func [0.2,0.6,0.3,0.8],[0.4,0.9,0.5,0.9] Algorithm</text>
   </g>
   <g id="legend_1">
    <g id="patch_7">
     <path d="M 139.998125 64.150125 
L 407.72 64.150125 
Q 409.72 64.150125 409.72 62.150125 
L 409.72 48.472 
Q 409.72 46.472 407.72 46.472 
L 139.998125 46.472 
Q 137.998125 46.472 137.998125 48.472 
L 137.998125 62.150125 
Q 137.998125 64.150125 139.998125 64.150125 
z
" style="fill:#ffffff;opacity:0.8;stroke:#cccccc;stroke-linejoin:miter;"/>
    </g>
    <g id="line2d_16">
     <path d="M 141.998125 54.570438 
L 161.998125 54.570438 
" style="fill:none;stroke:#1f77b4;stroke-linecap:square;stroke-width:1.5;"/>
    </g>
    <g id="line2d_17"/>
    <g id="text_18">
     <text style="font-family:DejaVu Sans;font-size:10px;font-style:normal;font-weight:normal;text-anchor:start;" transform="rotate(-0, 169.998125, 58.070438)" x="169.998125" y="58.070438">Rational Func [0.2,0.6,0.3,0.8],[0.4,0.9,0.5,0.9]</text>
    </g>
   </g>
  </g>
 </g>
 <defs>
  <clipPath id="p8af44fd851">
   <rect height="266.112" width="357.12" x="57.6" y="41.472"/>
  </clipPath>
 </defs>
</svg>

<svg height="460.8" viewBox="0 0 460.8 345.6" width="614.4" xmlns="http://www.w3.org/2000/svg" xmlns:xlink="http://www.w3.org/1999/xlink"><defs><style>*{stroke-linecap:butt;stroke-linejoin:round}</style></defs><g id="figure_1"><path d="M0 345.6h460.8V0H0z" fill="#fff" id="patch_1"/><g id="axes_1"><path d="M57.6 307.584h357.12V41.472H57.6z" fill="#fff" id="patch_2"/><g id="matplotlib.axis_1"><g id="xtick_1"><g id="line2d_1"><defs><path d="M0 0v3.5" id="m0df57b235e" stroke="#000" stroke-width=".8"/></defs><use x="73.8" xlink:href="#m0df57b235e" y="307.584" stroke="#000" stroke-width=".8"/></g><text x="73.8" y="322.182" font-family="DejaVu Sans" font-size="10" font-weight="400" text-anchor="middle" id="text_1">0.0</text></g><g id="xtick_2"><use x="138.744" xlink:href="#m0df57b235e" y="307.584" stroke="#000" stroke-width=".8" id="line2d_2"/><text x="138.744" y="322.182" font-family="DejaVu Sans" font-size="10" font-weight="400" text-anchor="middle" id="text_2">0.2</text></g><g id="xtick_3"><use x="203.688" xlink:href="#m0df57b235e" y="307.584" stroke="#000" stroke-width=".8" id="line2d_3"/><text x="203.688" y="322.182" font-family="DejaVu Sans" font-size="10" font-weight="400" text-anchor="middle" id="text_3">0.4</text></g><g id="xtick_4"><use x="268.632" xlink:href="#m0df57b235e" y="307.584" stroke="#000" stroke-width=".8" id="line2d_4"/><text x="268.632" y="322.182" font-family="DejaVu Sans" font-size="10" font-weight="400" text-anchor="middle" id="text_4">0.6</text></g><g id="xtick_5"><use x="333.576" xlink:href="#m0df57b235e" y="307.584" stroke="#000" stroke-width=".8" id="line2d_5"/><text x="333.576" y="322.182" font-family="DejaVu Sans" font-size="10" font-weight="400" text-anchor="middle" id="text_5">0.8</text></g><g id="xtick_6"><use x="398.52" xlink:href="#m0df57b235e" y="307.584" stroke="#000" stroke-width=".8" id="line2d_6"/><text x="398.52" y="322.182" font-family="DejaVu Sans" font-size="10" font-weight="400" text-anchor="middle" id="text_6">1.0</text></g><text x="236.16" y="335.861" font-family="DejaVu Sans" font-size="10" font-weight="400" text-anchor="middle" id="text_7">Probability</text></g><g id="matplotlib.axis_2"><g id="ytick_1"><g id="line2d_7"><defs><path d="M0 0h-3.5" id="m46b04f5a22" stroke="#000" stroke-width=".8"/></defs><use x="57.6" xlink:href="#m46b04f5a22" y="286.542" stroke="#000" stroke-width=".8"/></g><text x="50.6" y="290.341" font-family="DejaVu Sans" font-size="10" font-weight="400" text-anchor="end" id="text_8">7</text></g><g id="ytick_2"><use x="57.6" xlink:href="#m46b04f5a22" y="255.262" stroke="#000" stroke-width=".8" id="line2d_8"/><text x="50.6" y="259.061" font-family="DejaVu Sans" font-size="10" font-weight="400" text-anchor="end" id="text_9">8</text></g><g id="ytick_3"><use x="57.6" xlink:href="#m46b04f5a22" y="223.982" stroke="#000" stroke-width=".8" id="line2d_9"/><text x="50.6" y="227.781" font-family="DejaVu Sans" font-size="10" font-weight="400" text-anchor="end" id="text_10">9</text></g><g id="ytick_4"><use x="57.6" xlink:href="#m46b04f5a22" y="192.702" stroke="#000" stroke-width=".8" id="line2d_10"/><text x="50.6" y="196.501" font-family="DejaVu Sans" font-size="10" font-weight="400" text-anchor="end" id="text_11">10</text></g><g id="ytick_5"><use x="57.6" xlink:href="#m46b04f5a22" y="161.422" stroke="#000" stroke-width=".8" id="line2d_11"/><text x="50.6" y="165.221" font-family="DejaVu Sans" font-size="10" font-weight="400" text-anchor="end" id="text_12">11</text></g><g id="ytick_6"><use x="57.6" xlink:href="#m46b04f5a22" y="130.142" stroke="#000" stroke-width=".8" id="line2d_12"/><text x="50.6" y="133.941" font-family="DejaVu Sans" font-size="10" font-weight="400" text-anchor="end" id="text_13">12</text></g><g id="ytick_7"><use x="57.6" xlink:href="#m46b04f5a22" y="98.862" stroke="#000" stroke-width=".8" id="line2d_13"/><text x="50.6" y="102.661" font-family="DejaVu Sans" font-size="10" font-weight="400" text-anchor="end" id="text_14">13</text></g><g id="ytick_8"><use x="57.6" xlink:href="#m46b04f5a22" y="67.581" stroke="#000" stroke-width=".8" id="line2d_14"/><text x="50.6" y="71.381" font-family="DejaVu Sans" font-size="10" font-weight="400" text-anchor="end" id="text_15">14</text></g><text transform="rotate(-90 31.795 174.528)" x="31.795" y="174.528" font-family="DejaVu Sans" font-size="10" font-weight="400" text-anchor="middle" id="text_16">Average Bits Consumed Per Call</text></g><path clip-path="url(#p8af44fd851)" d="M73.833 57.196l3.28-3.628L80.39 87.1l3.28-7.32 3.28-9.383 3.278 28.027 3.28 6.256 3.28 27.276 3.278-16.891 3.28 32.156 3.28-18.956 3.278 16.203 3.28 11.761 3.28 13.763 3.278-7.57 3.28 20.708 3.28 4.254 3.278-20.02 3.28 24.212 3.28 15.264 3.279 5.944 3.279.625 3.28-3.753 3.279 5.692 3.279-2.94 3.28-13.763 3.279 18.643 3.279-3.816 3.28-5.193 3.279 19.018 3.279-10.822 3.28-.814 3.279-.5 3.279 9.134 3.28-2.565 3.279-3.817 3.279-1 3.28-.564 3.279 23.023 3.279 2.127 3.28-20.458 3.279 4.755 3.279-2.252 3.28 8.633 3.279 8.821 3.279-15.077 3.28 17.267 3.279-16.641 3.279 6.631 3.28-5.255 3.279 16.015 3.279-4.692 3.28 2.44 3.279-5.067 3.279 9.634 3.28-1.501 3.279-.5 3.279-6.444 3.28 2.377 3.279 4.004 3.28-2.378 3.278-7.632 3.28 9.009 3.28-19.582 3.278 4.317 3.28 10.635 3.28 1.752 3.278-1.94 3.28-1.313 3.28.876 3.278-1.627 3.28 13.2 3.28-2.502 3.278 6.13 3.28-2.877 3.28-10.322 3.278 11.636 3.28 2.252 3.28-.813 3.278-.25 3.28 3.127 3.28-3.816 3.279 8.446 3.279 6.756 3.28-3.753 3.279 4.442 3.279-3.128 3.28 6.944 3.279.876 3.279.375 3.28 6.944 3.279 1.126 3.279-3.566 3.28 12.575 3.279-5.88 3.279-13.201 3.28 22.271 3.279-1.626 3.279.188 3.28 3.628" fill="none" stroke="#1f77b4" stroke-linecap="square" stroke-width="1.5" id="line2d_15"/><path d="M57.6 307.584V41.472" fill="none" stroke="#000" stroke-linecap="square" stroke-width=".8" id="patch_3"/><path d="M414.72 307.584V41.472" fill="none" stroke="#000" stroke-linecap="square" stroke-width=".8" id="patch_4"/><path d="M57.6 307.584h357.12" fill="none" stroke="#000" stroke-linecap="square" stroke-width=".8" id="patch_5"/><path d="M57.6 41.472h357.12" fill="none" stroke="#000" stroke-linecap="square" stroke-width=".8" id="patch_6"/><text x="236.16" y="35.472" font-family="DejaVu Sans" font-size="12" font-weight="400" text-anchor="middle" id="text_17">Avg. Bits Consumed by Rational Func [0.2,0.6,0.3,0.8],[0.4,0.9,0.5,0.9] Algorithm</text><g id="legend_1"><path d="M139.998 64.15H407.72q2 0 2-2V48.472q0-2-2-2H139.998q-2 0-2 2V62.15q0 2 2 2z" fill="#fff" opacity=".8" stroke="#ccc" id="patch_7"/><path d="M141.998 54.57h20" fill="none" stroke="#1f77b4" stroke-linecap="square" stroke-width="1.5" id="line2d_16"/><text x="169.998" y="58.07" font-family="DejaVu Sans" font-size="10" font-weight="400" id="text_18">Rational Func [0.2,0.6,0.3,0.8],[0.4,0.9,0.5,0.9]</text></g></g></g><defs><clipPath id="p8af44fd851"><path d="M57.6 41.472h357.12v266.112H57.6z"/></clipPath></defs></svg>
